X:11
T:Jack Holmes Reel,aka. JMP.011
T:Lady Nellie Wemyss,aka. JMP.011
M:6/8
L:1/8
Q:3/8=110
C:â€14â€¦Quick Marchâ€
S:John Miller MS. Perth, 1799.(for the fife)
R:.March
O:Scotland
A:Perth
N:1 â€“ Bar line appears to be missing, but
N:photocopy very dark..Untitled in MS, except for â€œquick marchâ€..
H:1799
Z:vmp.C. Graebe
K:D major
â€œ_No time signature given â€“ key given as Gâ€cde e2a |\
cAc e2d | cde efg | BGB d2B |!
cde efg | agf edc | dfd cec | BGB d2 B â€œ1â€:|!
|: aec ecA | aec efg | aec ecA | BGB d2 B |!
aec ecA | aec efg | fdf ece | BGB d2 B ğŸ˜

